N0; Post Processor: proLIGHT 1000 Single Tool
N1; Material Type: Machinable Wax
N2; Material Size: X76.2000 Y50.8000 Z38.1000
N3; Material Origin: X0.0000 Y0.0000 Z0.0000
N4; Units: Metric
N5G05
N6;Engrave, Toolpath #1
N7S1500.0
N8M03
N9G0Z2.0; Retract
N10G0X14.6454Y40.4446
N11Z0.07
N12G1Z-1.0F95.0; Plunge
N13G1F190.0
N14G0Z2.0; Retract
N15G0X36.1377Y25.2131
N16Z0.07
N17G1Z-1.0F95.0; Plunge
N18G1F190.0
N19G0Z2.0; Retract
N20G0X16.9815Y16.7096
N21Z0.07
N22G1Z-1.0F95.0; Plunge
N23G1F190.0
N24G0Z2.0; Retract
N25G0X44.9215Y42.5938
N26Z0.07
N27G1Z-1.0F95.0; Plunge
N28G1F190.0
N29G0Z2.0; Retract
N30G0X55.8545Y25.0262
N31Z0.07
N32G1Z-1.0F95.0; Plunge
N33G1F190.0
N34G0Z2.0; Retract
N35G0X31.4654Y11.1964
N36Z0.07
N37G1Z-1.0F95.0; Plunge
N38G1F190.0
N39G0Z2.0; Retract
N40G0X24.5505Y36.1462
N41Z0.07
N42G1Z-1.0F95.0; Plunge
N43G1F190.0
N44G0Z2.0; Retract
N45G0X62.4891Y6.1504
N46Z0.07
N47G1Z-1.0F95.0; Plunge
N48G1F190.0
N49G0Z2.0; Retract
N50G0X67.5351Y40.8184
N51Z0.07
N52G1Z-1.0F95.0; Plunge
N53G1F190.0
N54G0Z2.0; Retract
N55G0X47.9117Y15.7752
N56Z0.07
N57G1Z-1.0F95.0; Plunge
N58G1F190.0
N59G0Z2.0; Retract
N60G0X49.7806Y33.8100
N61Z0.07
N62G1Z-1.0F95.0; Plunge
N63G1F190.0
N64G0Z2.0; Retract
N65G0X63.7039Y17.2703
N66Z0.07
N67G1Z-1.0F95.0; Plunge
N68G1F190.0
N69G0Z2.0; Retract
N70G0X32.4933Y36.9872
N71Z0.07
N72G1Z-1.0F95.0; Plunge
N73G1F190.0
N74G0Z2.0; Retract
N75G0X56.3217Y48.2940
N76Z0.07
N77G1Z-1.0F95.0; Plunge
N78G1F190.0
N79G0Z2.0; Retract
N80G0X62.0219Y31.4739
N81Z0.07
N82G1Z-1.0F95.0; Plunge
N83G1F190.0
N84G0Z2.0; Retract
N85G0X26.4194Y25.6803
N86Z0.07
N87G1Z-1.0F95.0; Plunge
N88G1F190.0
N89G0Z2.0; Retract
N90G0X36.8852Y16.8031
N91Z0.07
N92G1Z-1.0F95.0; Plunge
N93G1F190.0
N94G0Z2.0; Retract
N95G0X41.8378Y5.4963
N96Z0.07
N97G1Z-1.0F95.0; Plunge
N98G1F190.0
N99G0Z2.0; Retract
N100G0X42.8657Y26.5213
N101Z0.07
N102G1Z-1.0F95.0; Plunge
N103G1F190.0
N104G0Z2.0; Retract
N105G0X54.1725Y13.1587
N106Z0.07
N107G1Z-1.0F95.0; Plunge
N108G1F190.0
N109G0Z2.0; Retract
N110G0X52.2102Y5.4963
N111Z0.07
N112G1Z-1.0F95.0; Plunge
N113G1F190.0
N114G0Z2.0; Retract
N115G0X29.7834Y4.3749
N116Z0.07
N117G1Z-1.0F95.0; Plunge
N118G1F190.0
N119G0Z2.0; Retract
N120G0X12.2158Y6.2438
N121Z0.07
N122G1Z-1.0F95.0; Plunge
N123G1F190.0
N124G0Z2.0; Retract
N125G0X30.6244Y16.3359
N126Z0.07
N127G1Z-1.0F95.0; Plunge
N128G1F190.0
N129G0Z2.0; Retract
N130G0X9.0387Y27.9230
N131Z0.07
N132G1Z-1.0F95.0; Plunge
N133G1F190.0
N134G0Z2.0; Retract
N135G0X15.4864Y11.5702
N136Z0.07
N137G1Z-1.0F95.0; Plunge
N138G1F190.0
N139G0Z2.0; Retract
N140G0X22.3078Y6.6176
N141Z0.07
N142G1Z-1.0F95.0; Plunge
N143G1F190.0
N144G0Z2.0; Retract
N145G0X16.4208Y27.6427
N146Z0.07
N147G1Z-1.0F95.0; Plunge
N148G1F190.0
N149G0Z2.0; Retract
N150G0X5.0205Y14.2801
N151Z0.07
N152G1Z-1.0F95.0; Plunge
N153G1F190.0
N154G0Z2.0; Retract
N155G0X4.5533Y6.8979
N156Z0.07
N157G1Z-1.0F95.0; Plunge
N158G1F190.0
N159G0Z2.0; Retract
N160G0X12.4027Y25.0262
N161Z0.07
N162G1Z-1.0F95.0; Plunge
N163G1F190.0
N164G0Z2.0; Retract
N165G0X2.6844Y20.5409
N166Z0.07
N167G1Z-1.0F95.0; Plunge
N168G1F190.0
N169G0Z2.0; Retract
N170G0X5.5812Y34.9314
N171Z0.07
N172G1Z-1.0F95.0; Plunge
N173G1F190.0
N174G0Z2.0; Retract
N175G0X5.8615Y45.7710
N176Z0.07
N177G1Z-1.0F95.0; Plunge
N178G1F190.0
N179G0Z2.0; Retract
N180G0X16.5142Y32.6887
N181Z0.07
N182G1Z-1.0F95.0; Plunge
N183G1F190.0
N184G0Z2.0; Retract
N185G0X22.4013Y45.3972
N186Z0.07
N187G1Z-1.0F95.0; Plunge
N188G1F190.0
N189G0Z2.0; Retract
N190G0X28.8490Y31.1936
N191Z0.07
N192G1Z-1.0F95.0; Plunge
N193G1F190.0
N194G0Z2.0; Retract
N195G0X33.5212Y46.5185
N196Z0.07
N197G1Z-1.0F95.0; Plunge
N198G1F190.0
N199G0Z2.0; Retract
N200G0X41.9312Y34.4641
N201Z0.07
N202G1Z-1.0F95.0; Plunge
N203G1F190.0
N204G0Z2.0; Retract
N205G0X55.2938Y39.0429
N206Z0.07
N207G1Z-1.0F95.0; Plunge
N208G1F190.0
N209G0Z2.0; Retract
N210G0X66.1334Y46.1447
N211Z0.07
N212G1Z-1.0F95.0; Plunge
N213G1F190.0
N214G0Z2.0; Retract
N215G0X70.8057Y26.6148
N216Z0.07
N217G1Z-1.0F95.0; Plunge
N218G1F190.0
N219G0Z2.0; Retract
N220G0X64.6383Y25.0262
N221Z0.07
N222G1Z-1.0F95.0; Plunge
N223G1F190.0
N224G0Z2.0; Retract
N225G0X69.4040Y14.3735
N226Z0.07
N227G1Z-1.0F95.0; Plunge
N228G1F190.0
N229G0Z2.0; Retract
N230G0X72.3008Y5.5897
N231Z0.07
N232G1Z-1.0F95.0; Plunge
N233G1F190.0
N234G0Z2.0; Retract
N235G0X53.4249Y19.3261
N236Z0.07
N237G1Z-1.0F95.0; Plunge
N238G1F190.0
N239G0Z2.0; Retract
N240G0X47.2576Y23.7180
N241Z0.07
N242G1Z-1.0F95.0; Plunge
N243G1F190.0
N244G0Z2.0; Retract
N245G0X23.1488Y21.1015
N246Z0.07
N247G1Z-1.0F95.0; Plunge
N248G1F190.0
N249G0Z2.0; Retract
N250G0X22.1209Y28.1099
N251Z0.07
N252G1Z-1.0F95.0; Plunge
N253G1F190.0
N254G0Z2.0; Retract
N255G0X42.4919Y11.0095
N256Z0.07
N257G1Z-1.0F95.0; Plunge
N258G1F190.0
N259G0Z2.0; Retract
N260G0X23.8964Y14.0932
N261Z0.07
N262G1Z-1.0F95.0; Plunge
N263G1F190.0
N264G0Z2.0; Retract
N265G0X12.3092Y18.9523
N266Z0.07
N267G1Z-1.0F95.0; Plunge
N268G1F190.0
N269G0Z2.0; Retract
N270G0X3.5254Y25.6803
N271Z0.07
N272G1Z-1.0F95.0; Plunge
N273G1F190.0
N274G0Z2.0; Retract
N275G0X11.1879Y34.0904
N276Z0.07
N277G1Z-1.0F95.0; Plunge
N278G1F190.0
N279G0Z2.0; Retract
N280G0X6.8894Y41.3791
N281Z0.07
N282G1Z-1.0F95.0; Plunge
N283G1F190.0
N284G0Z2.0; Retract
N285G0X14.6454Y48.0136
N286Z0.07
N287G1Z-1.0F95.0; Plunge
N288G1F190.0
N289G0Z2.0; Retract
N290G0X17.8225Y41.6594
N291Z0.07
N292G1Z-1.0F95.0; Plunge
N293G1F190.0
N294G0Z2.0; Retract
N295G0X33.8950Y40.2577
N296Z0.07
N297G1Z-1.0F95.0; Plunge
N298G1F190.0
N299G0Z2.0; Retract
N300G0X41.7443Y46.8923
N301Z0.07
N302G1Z-1.0F95.0; Plunge
N303G1F190.0
N304G0Z2.0; Retract
N305G0X28.1948Y42.0332
N306Z0.07
N307G1Z-1.0F95.0; Plunge
N308G1F190.0
N309G0Z2.0; Retract
N310G0X44.2674Y39.2298
N311Z0.07
N312G1Z-1.0F95.0; Plunge
N313G1F190.0
N314G0Z2.0; Retract
N315G0X52.3036Y45.9579
N316Z0.07
N317G1Z-1.0F95.0; Plunge
N318G1F190.0
N319G0Z2.0; Retract
N320G0X61.1809Y39.8839
N321Z0.07
N322G1Z-1.0F95.0; Plunge
N323G1F190.0
N324G0Z2.0; Retract
N325G0X56.0414Y32.9690
N326Z0.07
N327G1Z-1.0F95.0; Plunge
N328G1F190.0
N329G0Z2.0; Retract
N330G0X69.0302Y34.4641
N331Z0.07
N332G1Z-1.0F95.0; Plunge
N333G1F190.0
N334G0Z2.0; Retract
N335G0X70.8991Y20.3540
N336Z0.07
N337G1Z-1.0F95.0; Plunge
N338G1F190.0
N339G0Z2.0; Retract
N340G0X60.4333Y11.0095
N341Z0.07
N342G1Z-1.0F95.0; Plunge
N343G1F190.0
N344G0Z2.0; Retract
N345G0X57.2562Y20.1671
N346Z0.07
N347G1Z-1.0F95.0; Plunge
N348G1F190.0
N349G0Z2.0; Retract
N350G0X38.0066Y31.1936
N351Z0.07
N352G1Z-1.0F95.0; Plunge
N353G1F190.0
N354G0Z2.0; Retract
N355G0X43.4264Y21.1950
N356Z0.07
N357G1Z-1.0F95.0; Plunge
N358G1F190.0
N359G0Z2.0; Retract
N360M02; End of File
