N0; Post Processor: proLIGHT 1000 Single Tool
N1; Material Type: Machinable Wax
N2; Material Size: X100.0000 Y100.0000 Z38.1000
N3; Material Origin: X0.0000 Y0.0000 Z0.0000
N4; Units: Metric
N5G05
N6;Engrave, Toolpath #1
N7S1500.0
N8M03
N9G0Z10.0; Retract
N10G0X85.8381Y47.6087
N11Z0.07
N12G1Z-1.0F50.0; Plunge
N13G3X85.8381Y47.6087Z-1.0I49.2642J47.6087F100.0
N14G0Z10.0; Retract
N15G0X71.1920
N16Z0.07
N17G1Z-1.0F50.0; Plunge
N18G3X71.1920Y47.6087Z-1.0I49.4482J47.6087F100.0
N19G0Z10.0; Retract
N20G0X91.3880Y7.3244
N21Z0.07
N22G1Z-1.0F50.0; Plunge
N23G1X7.6923Y91.5719F100.0
N24X91.5719Y92.1237
N25X8.2441Y7.5084
N26G0Z10.0; Retract
N27G0X49.4482Y60.6689
N28Z0.07
N29G1Z-1.0F50.0; Plunge
N30G1F100.0
N31G0Z10.0; Retract
N32G0X61.4047Y20.0167
N33Z0.07
N34G1Z-1.0F50.0; Plunge
N35G1F100.0
N36G0Z10.0; Retract
N37G0X61.2207Y74.8328
N38Z0.07
N39G1Z-1.0F50.0; Plunge
N40G1F100.0
N41G0Z10.0; Retract
N42G0X22.0401Y35.1003
N43Z0.07
N44G1Z-1.0F50.0; Plunge
N45G1F100.0
N46G0Z10.0; Retract
N47G0X74.6488Y59.7492
N48Z0.07
N49G1Z-1.0F50.0; Plunge
N50G1F100.0
N51G0Z10.0; Retract
N52G0X36.5719Y20.0167
N53Z0.07
N54G1Z-1.0F50.0; Plunge
N55G1F100.0
N56G0Z10.0; Retract
N57G0X35.8361Y73.9130
N58Z0.07
N59G1Z-1.0F50.0; Plunge
N60G1F100.0
N61G0Z10.0; Retract
N62G0X76.4883Y35.1003
N63Z0.07
N64G1Z-1.0F50.0; Plunge
N65G1F100.0
N66G0Z10.0; Retract
N67G0X21.8562Y60.8528
N68Z0.07
N69G1Z-1.0F50.0; Plunge
N70G1F100.0
N71G0Z10.0; Retract
N72G0X49.0803Y33.8127
N73Z0.07
N74G1Z-1.0F50.0; Plunge
N75G1F100.0
N76G0Z10.0; Retract
N77G0X62.8763Y48.1605
N78Z0.07
N79G1Z-1.0F50.0; Plunge
N80G1F100.0
N81G0Z10.0; Retract
N82G0X35.4682Y47.7926
N83Z0.07
N84G1Z-1.0F50.0; Plunge
N85G1F100.0
N86G0Z10.0; Retract
N87G0X14.8662Y78.1438
N88Z0.07
N89G1Z-1.0F50.0; Plunge
N90G3X12.4749Y20.5686I53.8591J47.6870F100.0
N91G0Z10.0; Retract
N92G0X87.1572Y19.2809
N93Z0.07
N94G1Z-1.0F50.0; Plunge
N95G3X84.9498Y79.4314I32.5165J47.3915F100.0
N96G0Z10.0; Retract
N97M02; End of File
