N0; Post Processor: proLIGHT 1000 Single Tool
N1; Material Type: Machinable Wax
N2; Material Size: X76.2000 Y50.8000 Z38.1000
N3; Material Origin: X0.0000 Y0.0000 Z0.0000
N4; Units: Metric
N5G05
N6;Engrave, Toolpath #1
N7S1500.0
N8M03
N9G0Z10.0; Retract
N10G0X6.4222Y46.4251
N11Z0.07
N12G1Z-1.0F50.0; Plunge
N13G1F100.0
N14G0Z10.0; Retract
N15G0X6.3288Y4.7487
N16Z0.07
N17G1Z-1.0F50.0; Plunge
N18G1F100.0
N19G0Z10.0; Retract
N20G0X69.9647Y46.4251
N21Z0.07
N22G1Z-1.0F50.0; Plunge
N23G1F100.0
N24G0Z10.0; Retract
N25G1Z-1.0F50.0; Plunge
N26G1F100.0
N27G0Z10.0; Retract
N28G0X69.0302Y3.9077
N29Z0.07
N30G1Z-1.0F50.0; Plunge
N31G1F100.0
N32G0Z10.0; Retract
N33G0X7.7304Y23.0639
N34Z0.07
N35G1Z-1.0F50.0; Plunge
N36G1F100.0
N37G0Z10.0; Retract
N38G0X43.9870Y45.3972
N39Z0.07
N40G1Z-1.0F50.0; Plunge
N41G1F100.0
N42G0Z10.0; Retract
N43G0X66.5072Y25.5869
N44Z0.07
N45G1Z-1.0F50.0; Plunge
N46G1F100.0
N47G0Z10.0; Retract
N48G0X38.2869Y6.4307
N49Z0.07
N50G1Z-1.0F50.0; Plunge
N51G1F100.0
N52G0Z10.0; Retract
N53G0X17.6356Y31.7542
N54Z0.07
N55G1Z-1.0F50.0; Plunge
N56G1F100.0
N57G0Z10.0; Retract
N58G0X51.7429Y10.4488
N59Z0.07
N60G1Z-1.0F50.0; Plunge
N61G1F100.0
N62G0Z10.0; Retract
N63G0X66.4138Y36.5199
N64Z0.07
N65G1Z-1.0F50.0; Plunge
N66G1F100.0
N67G0Z10.0; Retract
N68G0X28.4752Y46.7054
N69Z0.07
N70G1Z-1.0F50.0; Plunge
N71G1F100.0
N72G0Z10.0; Retract
N73G0X7.0763Y36.9872
N74Z0.07
N75G1Z-1.0F50.0; Plunge
N76G1F100.0
N77G0Z10.0; Retract
N78G0X12.2158Y9.7013
N79Z0.07
N80G1Z-1.0F50.0; Plunge
N81G1F100.0
N82G0Z10.0; Retract
N83G0X57.5365Y45.5841
N84Z0.07
N85G1Z-1.0F50.0; Plunge
N86G1F100.0
N87G0Z10.0; Retract
N88G0X61.5546Y4.4684
N89Z0.07
N90G1Z-1.0F50.0; Plunge
N91G1F100.0
N92G0Z10.0; Retract
N93G0X19.7848Y42.9676
N94Z0.07
N95G1Z-1.0F50.0; Plunge
N96G1F100.0
N97G0Z10.0; Retract
N98G0X9.7862Y29.8854
N99Z0.07
N100G1Z-1.0F50.0; Plunge
N101G1F100.0
N102G0Z10.0; Retract
N103G0X51.9554Y27.6427
N104Z0.07
N105G1Z-1.0F50.0; Plunge
N106G3X51.9554Y27.6427Z-1.0I40.9968J27.6427F100.0
N107G0Z10.0; Retract
N108G0X61.8350Y24.1852
N109Z0.07
N110G1Z-1.0F50.0; Plunge
N111G1Y31.1936F100.0
N112X21.6537
N113Y24.1852
N114X61.8350
N115G0Z10.0; Retract
N116G0X70.8991Y8.8603
N117Z0.07
N118G1Z-1.0F50.0; Plunge
N119G1X71.5532Y48.3874F100.0
N120X14.3650Y37.2675
N121X12.3092Y15.0276
N122G2X25.2981Y5.3094I19.3300J10.8720
N123G3X53.2381Y6.2438I37.5525J57.0718
N124G0Z10.0; Retract
N125M02; End of File
